X: 1
T:John Henry's
R:jig
D:Tommy Keane & Jacqueline McCarthy: The Wind among the Reeds
Z:id:hn-jig-265
M:6/8
K:D
~A3 BAF|Adf a2f|geg fdf|ede fdB|
~A3 BAF|Adf a2f|geg fga|gec d3:|
|:Adf afa|baf a2f|geg ~f3|ede fdB|
[1 Adf ~a3|baf a2f|geg fga|gec d3:|
[2 ~A3 BAF|Adf a2f|geg fga|gec d3||
